X:1
T:Ay Linda Amiga
T:Ay Linda Amiga
T:Tablature pour Accordéon Diatonique Troix Voix 
T:Traditionnel Renaissance Espagnole 
C:Traditionnel Renaissance
L:1/8
Q:1/4=100
M:2/4
K:C
V:1 treble nm="Accordéon"
V:1
"Am""^Voix Soprane" A2 Ac |"Em" B2 BG |"F" A2 GF |"E" E2 E2 |"Am" A2 Ac |"Em" BB BG |"F" A2 GF | %7
w: |7 7 6|* 6 *|4' 4'||7 7 7 6|* 6 *|
w: 7 7 8||7 * 4'||7 7 8||7 * 4'|
w: |||||||
w: |||||||
w: Ay! Lin- da~a-|mi- ga que|no vuel- vo~a|ver- te,|Cuer- po gar-|ri- do que me|lle- va la|
"E" E2 E2 |"Am" cc"G" BG |"Am" A2 A2 |"Am" cc"G" BG |"Am" A3 E |"Am" AA"G" GG |"C" E2"Dm" D2 | %14
w: 4' 4'|* * 7 6||* * 7 6||* * 6 6|4' *|
w: |8 8 * *|7 7|8 8 * *|7 5|7 7 * *|* 3'|
w: |||||||
w: |||||||
w: muer- te|1.~No~hay a- mor sin|pe- na|pe- na sin do-|lor, Ni|do- lor tan a-|gu- do|
"F" FA GF |"E7" E3 E |"Am" AA"G" GG |"C" E2"Dm" D2 |"F" FA"E7" ^GG |"Am" A4 | %20
w: * * 6 *|4' 4'|* * 6 6|4' *|* * 4'' 4''||
w: 4' 7 * 4'||7 7 * *|* 3'|4' 7 * *|7|
w: ||||||
w: ||||||
w: co- mo~el del a-|mor, Ni|do- lor tan a-|gu- do|co- mo~el del a-|mor!|
"Am""^Voix Tenor" c2 cc |"Em" e2 ee |"F" d2 AA |"E" c2 B2 |"Am" c2 cc |"Em" ee ee |"F" d2 AA | %27
w: |7' 7' 7'||6' 7||7' 7' 7' 7'||
w: 8 8 8||7' 5' 5'||8 8 8||7' 5' 5'|
w: |||||||
w: |||||||
w: Ay! Lin- da~a-|mi- ga que|no vuel- vo~a|ver- te,|Cuer- po gar-|ri- do que me|lle- va la|
"E" c2 B2 |"Am" AA"G" BB |"Am" c2 c2 |"Am" AA"G" BB |"Am" c3 c |"Am" cc"G" BG |"C" G2"Dm" F2 | %34
w: 6' 7|* * 7 7||* * 7 7||* * 7 6|6 *|
w: |7 7 * *|8 8|7 7 * *|8 8|8 8 * *|* 4'|
w: |||||||
w: |||||||
w: muer- te|2.~Le- van- te- me|ma- dre|al sa- lir el|sol Fui|por los cam- pos|ver- des|
"F" AA AA |"E7" ^G3 G |"Am" AA"G" BG |"C" G2"Dm" F2 |"F" Ad"E7" BB |"Am" c4 | %40
w: |4'' 4''|* * 7 6|6 *|* * 7 7||
w: 7 7 7 7||7 7 * *|* 4'|7 7' * *|8|
w: ||||||
w: ||||||
w: a bus- car mi a-|mor, Fui|por los cam- pos|ver- des|a bus- car mi a-|mor!|
"Am""^Voix Alto" A2 AA |"Em" G2 GE |"F" F2 DF |"E" E2 E2 |"Am" A2 AA |"Em" GG GE |"F" F2 DF | %47
w: |6 6 4'||4' 4'||6 6 6 4'||
w: 7 7 7||4' 3' 4'||7 7 7||4' 3' 4'|
w: |||||||
w: |||||||
w: Ay! Lin- da~a-|mi- ga que|no vuel- vo~a|ver- te,|Cuer- po gar-|ri- do que me|lle- va la|
"E" E2 E2 |"Am" AA"G" GG |"Am" E2 E2 |"Am" AA"G" GG |"Am" E3 E |"Am" FF"G" DB, |"C" C2"Dm" D2 | %54
w: 4' 4'|* * 6 6||* * 6 6||* * 5 4|3' *|
w: |7 7 * *|5 5|7 7 * *|5 5|4' 4' * *|* 3'|
w: |||||||
w: |||||||
w: muer- te|1.~No~hay a- mor sin|pe- na|pe- na sin do-|lor, Ni|do- lor tan a-|gu- do|
"F" DF DF |"E7" E3 E |"Am" CC"G" B,B, |"C" C2"Dm" D2 |"F" FF"E7" EE |"Am" A4 |] %60
w: |4' 4'|* * 4 4|3' *|* * 4' 4'||
w: 3' 4' 3' 4'||4 4 * *|* 3'|4' 4' * *|7|
w: ||||||
w: ||||||
w: co- mo~el del a-|mor, Ni|do- lor tan a-|gu- do|co- mo~el del a-|mor!|

